public/logos/K4.svg

<?xml version="1.0" encoding="UTF-8"?>
<svg xmlns="http://www.w3.org/2000/svg" xmlns:xlink="http://www.w3.org/1999/xlink" width="176pt" height="12.24pt" viewBox="0 0 176 12.24" version="1.1">
<defs>
<clipPath id="clip1">
  <path d="M 30 1 L 40 1 L 40 12.238281 L 30 12.238281 Z M 30 1 "/>
</clipPath>
<clipPath id="clip2">
  <path d="M 42 1 L 53 1 L 53 12.238281 L 42 12.238281 Z M 42 1 "/>
</clipPath>
<clipPath id="clip3">
  <path d="M 96 1 L 107 1 L 107 12.238281 L 96 12.238281 Z M 96 1 "/>
</clipPath>
<clipPath id="clip4">
  <path d="M 115 1 L 126 1 L 126 12.238281 L 115 12.238281 Z M 115 1 "/>
</clipPath>
<clipPath id="clip5">
  <path d="M 56 1 L 64 1 L 64 12.238281 L 56 12.238281 Z M 56 1 "/>
</clipPath>
<clipPath id="clip6">
  <path d="M 67 1 L 71 1 L 71 12.238281 L 67 12.238281 Z M 67 1 "/>
</clipPath>
<clipPath id="clip7">
  <path d="M 73 1 L 83 1 L 83 12.238281 L 73 12.238281 Z M 73 1 "/>
</clipPath>
<clipPath id="clip8">
  <path d="M 85 1 L 95 1 L 95 12.238281 L 85 12.238281 Z M 85 1 "/>
</clipPath>
<clipPath id="clip9">
  <path d="M 129 1 L 133 1 L 133 12.238281 L 129 12.238281 Z M 129 1 "/>
</clipPath>
<clipPath id="clip10">
  <path d="M 137 0 L 146 0 L 146 12.238281 L 137 12.238281 Z M 137 0 "/>
</clipPath>
</defs>
<g id="surface1">
<path style=" stroke:none;fill-rule:nonzero;fill:rgb(16.101074%,15.496826%,15.432739%);fill-opacity:1;" d="M 12.554688 7.617188 C 9.042969 7.617188 6.195312 6 6.195312 4.007812 L 25.6875 4.007812 L 25.0625 7.617188 L 12.554688 7.617188 "/>
<path style=" stroke:none;fill-rule:nonzero;fill:rgb(52.333069%,37.609863%,18.963623%);fill-opacity:1;" d="M 6.601562 4.375 C 6.949219 5.96875 9.535156 7.253906 12.554688 7.253906 L 24.753906 7.253906 L 25.253906 4.375 Z M 25.371094 7.984375 L 12.554688 7.984375 C 8.78125 7.984375 5.828125 6.238281 5.828125 4.007812 L 5.828125 3.640625 L 26.121094 3.640625 L 25.371094 7.984375 "/>
<path style=" stroke:none;fill-rule:nonzero;fill:rgb(16.101074%,15.496826%,15.432739%);fill-opacity:1;" d="M 6.726562 3.972656 C 3.214844 3.972656 0.367188 2.355469 0.367188 0.363281 L 26.433594 0.363281 L 25.8125 3.972656 L 6.726562 3.972656 "/>
<path style=" stroke:none;fill-rule:nonzero;fill:rgb(52.333069%,37.609863%,18.963623%);fill-opacity:1;" d="M 0.773438 0.730469 C 1.121094 2.324219 3.707031 3.605469 6.726562 3.605469 L 25.503906 3.605469 L 26 0.730469 Z M 26.121094 4.339844 L 6.726562 4.339844 C 2.953125 4.339844 0 2.59375 0 0.363281 L 0 -0.00390625 L 26.871094 -0.00390625 L 26.121094 4.339844 "/>
<path style=" stroke:none;fill-rule:nonzero;fill:rgb(16.101074%,15.496826%,15.432739%);fill-opacity:1;" d="M 18.417969 11.277344 C 14.902344 11.277344 12.054688 9.664062 12.054688 7.667969 L 24.945312 7.667969 L 24.320312 11.277344 L 18.417969 11.277344 "/>
<path style=" stroke:none;fill-rule:nonzero;fill:rgb(52.333069%,37.609863%,18.963623%);fill-opacity:1;" d="M 12.460938 8.035156 C 12.808594 9.628906 15.394531 10.914062 18.417969 10.914062 L 24.011719 10.914062 L 24.511719 8.035156 Z M 24.628906 11.644531 L 18.417969 11.644531 C 14.644531 11.644531 11.6875 9.898438 11.6875 7.667969 L 11.6875 7.300781 L 25.378906 7.300781 L 24.628906 11.644531 "/>
<path style=" stroke:none;fill-rule:nonzero;fill:rgb(16.101074%,15.496826%,15.432739%);fill-opacity:1;" d="M 150.9375 7.660156 L 150.3125 4.050781 L 169.804688 4.050781 C 169.804688 6.042969 166.957031 7.660156 163.445312 7.660156 L 150.9375 7.660156 "/>
<path style=" stroke:none;fill-rule:nonzero;fill:rgb(52.333069%,37.609863%,18.963623%);fill-opacity:1;" d="M 150.746094 4.417969 L 151.246094 7.292969 L 163.445312 7.292969 C 166.464844 7.292969 169.050781 6.011719 169.398438 4.417969 Z M 149.878906 3.683594 L 170.171875 3.683594 L 170.171875 4.050781 C 170.171875 6.28125 167.21875 8.027344 163.445312 8.027344 L 150.628906 8.027344 L 149.878906 3.683594 "/>
<path style=" stroke:none;fill-rule:nonzero;fill:rgb(16.101074%,15.496826%,15.432739%);fill-opacity:1;" d="M 150.1875 4.015625 L 149.5625 0.40625 L 175.632812 0.40625 C 175.632812 2.398438 172.785156 4.015625 169.273438 4.015625 L 150.1875 4.015625 "/>
<path style=" stroke:none;fill-rule:nonzero;fill:rgb(52.333069%,37.609863%,18.963623%);fill-opacity:1;" d="M 150 0.769531 L 150.496094 3.648438 L 169.273438 3.648438 C 172.296875 3.648438 174.878906 2.367188 175.230469 0.769531 Z M 149.128906 0.0390625 L 176 0.0390625 L 176 0.40625 C 176 2.636719 173.046875 4.382812 169.273438 4.382812 L 149.882812 4.382812 L 149.128906 0.0390625 "/>
<path style=" stroke:none;fill-rule:nonzero;fill:rgb(16.101074%,15.496826%,15.432739%);fill-opacity:1;" d="M 151.679688 11.320312 L 151.054688 7.710938 L 163.945312 7.710938 C 163.945312 9.703125 161.097656 11.320312 157.582031 11.320312 L 151.679688 11.320312 "/>
<path style=" stroke:none;fill-rule:nonzero;fill:rgb(52.333069%,37.609863%,18.963623%);fill-opacity:1;" d="M 151.488281 8.078125 L 151.988281 10.953125 L 157.582031 10.953125 C 160.605469 10.953125 163.191406 9.671875 163.539062 8.078125 Z M 150.621094 7.34375 L 164.3125 7.34375 L 164.3125 7.710938 C 164.3125 9.941406 161.355469 11.6875 157.582031 11.6875 L 151.371094 11.6875 L 150.621094 7.34375 "/>
<g clip-path="url(#clip1)" clip-rule="nonzero">
<path style=" stroke:none;fill-rule:nonzero;fill:rgb(52.333069%,37.609863%,18.963623%);fill-opacity:1;" d="M 30.167969 1.019531 L 32.683594 1.019531 L 32.683594 5.980469 L 32.734375 5.980469 C 32.984375 5.546875 33.25 5.148438 33.5 4.75 L 36.046875 1.019531 L 39.160156 1.019531 L 35.445312 5.796875 L 39.359375 12.238281 L 36.394531 12.238281 L 33.648438 7.394531 L 32.683594 8.578125 L 32.683594 12.238281 L 30.167969 12.238281 L 30.167969 1.019531 "/>
</g>
<g clip-path="url(#clip2)" clip-rule="nonzero">
<path style=" stroke:none;fill-rule:nonzero;fill:rgb(52.333069%,37.609863%,18.963623%);fill-opacity:1;" d="M 49.402344 10.109375 L 47.300781 2.917969 L 44.730469 12.238281 L 42.289062 12.238281 L 45.71875 1.019531 L 49.046875 1.019531 L 52.527344 12.238281 L 49.796875 12.238281 L 45.472656 12.21875 L 46.074219 10.109375 L 49.402344 10.109375 "/>
</g>
<g clip-path="url(#clip3)" clip-rule="nonzero">
<path style=" stroke:none;fill-rule:nonzero;fill:rgb(52.333069%,37.609863%,18.963623%);fill-opacity:1;" d="M 103.457031 10.109375 L 101.355469 2.917969 L 98.785156 12.238281 L 96.34375 12.238281 L 99.773438 1.019531 L 103.105469 1.019531 L 106.582031 12.238281 L 103.851562 12.238281 L 99.527344 12.21875 L 100.128906 10.109375 L 103.457031 10.109375 "/>
</g>
<g clip-path="url(#clip4)" clip-rule="nonzero">
<path style=" stroke:none;fill-rule:nonzero;fill:rgb(52.333069%,37.609863%,18.963623%);fill-opacity:1;" d="M 122.722656 10.109375 L 120.617188 2.917969 L 118.050781 12.238281 L 115.609375 12.238281 L 119.039062 1.019531 L 122.367188 1.019531 L 125.847656 12.238281 L 123.117188 12.238281 L 118.792969 12.21875 L 119.390625 10.109375 L 122.722656 10.109375 "/>
</g>
<g clip-path="url(#clip5)" clip-rule="nonzero">
<path style=" stroke:none;fill-rule:nonzero;fill:rgb(52.333069%,37.609863%,18.963623%);fill-opacity:1;" d="M 56.523438 1.019531 L 59.070312 1.019531 L 59.070312 10.109375 L 63.53125 10.109375 L 63.53125 12.238281 L 56.523438 12.238281 L 56.523438 1.019531 "/>
</g>
<g clip-path="url(#clip6)" clip-rule="nonzero">
<path style=" stroke:none;fill-rule:nonzero;fill:rgb(52.333069%,37.609863%,18.963623%);fill-opacity:1;" d="M 70.074219 1.019531 L 70.074219 12.238281 L 67.527344 12.238281 L 67.527344 1.019531 L 70.074219 1.019531 "/>
</g>
<g clip-path="url(#clip7)" clip-rule="nonzero">
<path style=" stroke:none;fill-rule:nonzero;fill:rgb(52.333069%,37.609863%,18.963623%);fill-opacity:1;" d="M 76.933594 3.148438 L 73.921875 3.148438 L 73.921875 1.019531 L 82.542969 1.019531 L 82.542969 3.148438 L 79.480469 3.148438 L 79.480469 12.238281 L 76.933594 12.238281 L 76.933594 3.148438 "/>
</g>
<g clip-path="url(#clip8)" clip-rule="nonzero">
<path style=" stroke:none;fill-rule:nonzero;fill:rgb(52.333069%,37.609863%,18.963623%);fill-opacity:1;" d="M 88.921875 3.148438 L 85.90625 3.148438 L 85.90625 1.019531 L 94.53125 1.019531 L 94.53125 3.148438 L 91.46875 3.148438 L 91.46875 12.238281 L 88.921875 12.238281 L 88.921875 3.148438 "/>
</g>
<g clip-path="url(#clip9)" clip-rule="nonzero">
<path style=" stroke:none;fill-rule:nonzero;fill:rgb(52.333069%,37.609863%,18.963623%);fill-opacity:1;" d="M 132.425781 1.019531 L 132.425781 12.238281 L 129.878906 12.238281 L 129.878906 1.019531 L 132.425781 1.019531 "/>
</g>
<g clip-path="url(#clip10)" clip-rule="nonzero">
<path style=" stroke:none;fill-rule:nonzero;fill:rgb(52.333069%,37.609863%,18.963623%);fill-opacity:1;" d="M 139.632812 5.996094 L 140.632812 5.996094 C 141.894531 5.996094 142.644531 5.363281 142.644531 4.382812 C 142.644531 3.347656 141.945312 2.832031 140.78125 2.816406 C 140.164062 2.816406 139.816406 2.867188 139.632812 2.898438 Z M 137.117188 1.167969 C 137.933594 1.035156 139.148438 0.933594 140.496094 0.933594 C 142.164062 0.933594 143.328125 1.183594 144.128906 1.816406 C 144.792969 2.351562 145.160156 3.132812 145.160156 4.164062 C 145.160156 5.597656 144.144531 6.578125 143.179688 6.929688 L 143.179688 6.980469 C 143.960938 7.296875 144.394531 8.042969 144.675781 9.078125 C 145.027344 10.34375 145.375 11.808594 145.59375 12.238281 L 142.996094 12.238281 C 142.8125 11.921875 142.546875 11.007812 142.214844 9.625 C 141.914062 8.226562 141.429688 7.84375 140.398438 7.828125 L 139.632812 7.828125 L 139.632812 12.238281 L 137.117188 12.238281 L 137.117188 1.167969 "/>
</g>
<path style=" stroke:none;fill-rule:nonzero;fill:rgb(16.101074%,15.496826%,15.432739%);fill-opacity:1;" d="M 30.359375 0.253906 L 32.875 0.253906 L 32.875 5.214844 L 32.925781 5.214844 C 33.175781 4.78125 33.441406 4.382812 33.691406 3.980469 L 36.238281 0.253906 L 39.351562 0.253906 L 35.640625 5.03125 L 39.550781 11.472656 L 36.585938 11.472656 L 33.839844 6.628906 L 32.875 7.808594 L 32.875 11.472656 L 30.359375 11.472656 L 30.359375 0.253906 "/>
<path style=" stroke:none;fill-rule:nonzero;fill:rgb(16.101074%,15.496826%,15.432739%);fill-opacity:1;" d="M 49.59375 9.34375 L 47.492188 2.148438 L 44.921875 11.472656 L 42.480469 11.472656 L 45.910156 0.253906 L 49.238281 0.253906 L 52.71875 11.472656 L 49.988281 11.472656 L 45.664062 11.453125 L 46.265625 9.34375 L 49.59375 9.34375 "/>
<path style=" stroke:none;fill-rule:nonzero;fill:rgb(16.101074%,15.496826%,15.432739%);fill-opacity:1;" d="M 103.648438 9.34375 L 101.546875 2.148438 L 98.976562 11.472656 L 96.535156 11.472656 L 99.964844 0.253906 L 103.296875 0.253906 L 106.773438 11.472656 L 104.042969 11.472656 L 99.71875 11.453125 L 100.320312 9.34375 L 103.648438 9.34375 "/>
<path style=" stroke:none;fill-rule:nonzero;fill:rgb(16.101074%,15.496826%,15.432739%);fill-opacity:1;" d="M 122.914062 9.34375 L 120.8125 2.148438 L 118.242188 11.472656 L 115.800781 11.472656 L 119.230469 0.253906 L 122.558594 0.253906 L 126.039062 11.472656 L 123.308594 11.472656 L 118.984375 11.453125 L 119.582031 9.34375 L 122.914062 9.34375 "/>
<path style=" stroke:none;fill-rule:nonzero;fill:rgb(16.101074%,15.496826%,15.432739%);fill-opacity:1;" d="M 56.714844 0.253906 L 59.261719 0.253906 L 59.261719 9.34375 L 63.722656 9.34375 L 63.722656 11.472656 L 56.714844 11.472656 L 56.714844 0.253906 "/>
<path style=" stroke:none;fill-rule:nonzero;fill:rgb(16.101074%,15.496826%,15.432739%);fill-opacity:1;" d="M 70.265625 0.253906 L 70.265625 11.472656 L 67.71875 11.472656 L 67.71875 0.253906 L 70.265625 0.253906 "/>
<path style=" stroke:none;fill-rule:nonzero;fill:rgb(16.101074%,15.496826%,15.432739%);fill-opacity:1;" d="M 77.125 2.382812 L 74.113281 2.382812 L 74.113281 0.253906 L 82.738281 0.253906 L 82.738281 2.382812 L 79.671875 2.382812 L 79.671875 11.472656 L 77.125 11.472656 L 77.125 2.382812 "/>
<path style=" stroke:none;fill-rule:nonzero;fill:rgb(16.101074%,15.496826%,15.432739%);fill-opacity:1;" d="M 89.113281 2.382812 L 86.097656 2.382812 L 86.097656 0.253906 L 94.722656 0.253906 L 94.722656 2.382812 L 91.660156 2.382812 L 91.660156 11.472656 L 89.113281 11.472656 L 89.113281 2.382812 "/>
<path style=" stroke:none;fill-rule:nonzero;fill:rgb(16.101074%,15.496826%,15.432739%);fill-opacity:1;" d="M 132.613281 0.253906 L 132.613281 11.472656 L 130.066406 11.472656 L 130.066406 0.253906 L 132.613281 0.253906 "/>
<path style=" stroke:none;fill-rule:nonzero;fill:rgb(16.101074%,15.496826%,15.432739%);fill-opacity:1;" d="M 139.824219 5.230469 L 140.824219 5.230469 C 142.089844 5.230469 142.839844 4.597656 142.839844 3.613281 C 142.839844 2.582031 142.140625 2.066406 140.972656 2.050781 C 140.355469 2.050781 140.007812 2.101562 139.824219 2.132812 Z M 137.3125 0.402344 C 138.125 0.269531 139.34375 0.167969 140.6875 0.167969 C 142.355469 0.167969 143.519531 0.417969 144.320312 1.050781 C 144.984375 1.582031 145.351562 2.367188 145.351562 3.398438 C 145.351562 4.832031 144.335938 5.8125 143.371094 6.160156 L 143.371094 6.210938 C 144.152344 6.527344 144.585938 7.277344 144.867188 8.308594 C 145.21875 9.574219 145.566406 11.039062 145.785156 11.472656 L 143.1875 11.472656 C 143.003906 11.15625 142.738281 10.242188 142.402344 8.859375 C 142.105469 7.460938 141.621094 7.078125 140.589844 7.0625 L 139.824219 7.0625 L 139.824219 11.472656 L 137.3125 11.472656 L 137.3125 0.402344 "/>
</g>
</svg>

<svg xmlns="http://www.w3.org/2000/svg" width="176pt" height="16.32" viewBox="0 0 176 12.24"><defs><clipPath id="a"><path d="M30 1h10v11.238H30Zm0 0"/></clipPath><clipPath id="b"><path d="M42 1h11v11.238H42Zm0 0"/></clipPath><clipPath id="c"><path d="M96 1h11v11.238H96Zm0 0"/></clipPath><clipPath id="d"><path d="M115 1h11v11.238h-11Zm0 0"/></clipPath><clipPath id="e"><path d="M56 1h8v11.238h-8Zm0 0"/></clipPath><clipPath id="f"><path d="M67 1h4v11.238h-4Zm0 0"/></clipPath><clipPath id="g"><path d="M73 1h10v11.238H73Zm0 0"/></clipPath><clipPath id="h"><path d="M85 1h10v11.238H85Zm0 0"/></clipPath><clipPath id="i"><path d="M129 1h4v11.238h-4Zm0 0"/></clipPath><clipPath id="j"><path d="M137 0h9v12.238h-9Zm0 0"/></clipPath></defs><path d="M12.555 7.617c-3.512 0-6.36-1.617-6.36-3.61h19.493l-.625 3.61z" style="stroke:none;fill-rule:nonzero;fill:#292827;fill-opacity:1"/><path d="M6.602 4.375c.347 1.594 2.933 2.879 5.953 2.879h12.199l.5-2.879Zm18.77 3.61H12.554c-3.774 0-6.727-1.747-6.727-3.977V3.64h20.293z" style="stroke:none;fill-rule:nonzero;fill:#856030;fill-opacity:1"/><path d="M6.727 3.973c-3.512 0-6.36-1.618-6.36-3.61h26.067l-.622 3.61z" style="stroke:none;fill-rule:nonzero;fill:#292827;fill-opacity:1"/><path d="M.773.73c.348 1.594 2.934 2.875 5.954 2.875h18.777L26 .73Zm25.348 3.61H6.727C2.953 4.34 0 2.594 0 .363v-.367h26.871z" style="stroke:none;fill-rule:nonzero;fill:#856030;fill-opacity:1"/><path d="M18.418 11.277c-3.516 0-6.363-1.613-6.363-3.609h12.89l-.625 3.61z" style="stroke:none;fill-rule:nonzero;fill:#292827;fill-opacity:1"/><path d="M12.46 8.035c.349 1.594 2.935 2.88 5.958 2.88h5.594l.5-2.88Zm12.169 3.61h-6.211c-3.773 0-6.73-1.747-6.73-3.977v-.367h13.69z" style="stroke:none;fill-rule:nonzero;fill:#856030;fill-opacity:1"/><path d="m150.938 7.66-.625-3.61h19.492c0 1.993-2.848 3.61-6.36 3.61z" style="stroke:none;fill-rule:nonzero;fill:#292827;fill-opacity:1"/><path d="m150.746 4.418.5 2.875h12.2c3.019 0 5.605-1.281 5.952-2.875Zm-.867-.734h20.293v.367c0 2.23-2.953 3.976-6.727 3.976H150.63z" style="stroke:none;fill-rule:nonzero;fill:#856030;fill-opacity:1"/><path d="m150.188 4.016-.625-3.61h26.07c0 1.992-2.848 3.61-6.36 3.61z" style="stroke:none;fill-rule:nonzero;fill:#292827;fill-opacity:1"/><path d="m150 .77.496 2.878h18.777c3.024 0 5.606-1.28 5.957-2.878Zm-.871-.73H176v.366c0 2.23-2.953 3.977-6.727 3.977h-19.39z" style="stroke:none;fill-rule:nonzero;fill:#856030;fill-opacity:1"/><path d="m151.68 11.32-.625-3.61h12.89c0 1.993-2.847 3.61-6.363 3.61z" style="stroke:none;fill-rule:nonzero;fill:#292827;fill-opacity:1"/><path d="m151.488 8.078.5 2.875h5.594c3.023 0 5.61-1.281 5.957-2.875Zm-.867-.734h13.691v.367c0 2.23-2.957 3.976-6.73 3.976h-6.21z" style="stroke:none;fill-rule:nonzero;fill:#856030;fill-opacity:1"/><g clip-path="url(#a)"><path d="M30.168 1.02h2.516v4.96h.05c.25-.433.516-.832.766-1.23l2.547-3.73h3.113l-3.715 4.777 3.914 6.441h-2.964l-2.747-4.843-.964 1.183v3.66h-2.516z" style="stroke:none;fill-rule:nonzero;fill:#856030;fill-opacity:1"/></g><g clip-path="url(#b)"><path d="m49.402 10.11-2.101-7.192-2.57 9.32h-2.442L45.72 1.02h3.328l3.48 11.218h-2.73l-4.324-.02.601-2.109z" style="stroke:none;fill-rule:nonzero;fill:#856030;fill-opacity:1"/></g><g clip-path="url(#c)"><path d="m103.457 10.11-2.102-7.192-2.57 9.32h-2.441l3.43-11.218h3.331l3.477 11.218h-2.73l-4.325-.02.602-2.109z" style="stroke:none;fill-rule:nonzero;fill:#856030;fill-opacity:1"/></g><g clip-path="url(#d)"><path d="m122.723 10.11-2.106-7.192-2.566 9.32h-2.442l3.43-11.218h3.328l3.48 11.218h-2.73l-4.324-.02.598-2.109z" style="stroke:none;fill-rule:nonzero;fill:#856030;fill-opacity:1"/></g><g clip-path="url(#e)"><path d="M56.523 1.02h2.547v9.09h4.461v2.128h-7.008z" style="stroke:none;fill-rule:nonzero;fill:#856030;fill-opacity:1"/></g><g clip-path="url(#f)"><path d="M70.074 1.02v11.218h-2.547V1.02z" style="stroke:none;fill-rule:nonzero;fill:#856030;fill-opacity:1"/></g><g clip-path="url(#g)"><path d="M76.934 3.148h-3.012V1.02h8.621v2.128H79.48v9.09h-2.546z" style="stroke:none;fill-rule:nonzero;fill:#856030;fill-opacity:1"/></g><g clip-path="url(#h)"><path d="M88.922 3.148h-3.016V1.02h8.625v2.128H91.47v9.09h-2.547z" style="stroke:none;fill-rule:nonzero;fill:#856030;fill-opacity:1"/></g><g clip-path="url(#i)"><path d="M132.426 1.02v11.218h-2.547V1.02z" style="stroke:none;fill-rule:nonzero;fill:#856030;fill-opacity:1"/></g><g clip-path="url(#j)"><path d="M139.633 5.996h1c1.262 0 2.012-.633 2.012-1.613 0-1.035-.7-1.551-1.864-1.567-.617 0-.965.051-1.148.082Zm-2.516-4.828c.817-.133 2.031-.234 3.38-.234 1.667 0 2.831.25 3.632.882.664.536 1.031 1.317 1.031 2.348 0 1.434-1.015 2.414-1.98 2.766v.05c.78.317 1.215 1.063 1.496 2.098.351 1.266.699 2.73.918 3.16h-2.598c-.184-.316-.45-1.23-.781-2.613-.3-1.398-.785-1.781-1.817-1.797h-.765v4.41h-2.516z" style="stroke:none;fill-rule:nonzero;fill:#856030;fill-opacity:1"/></g><path d="M30.36.254h2.515v4.96h.05c.25-.433.516-.831.766-1.234L36.238.254h3.114L35.64 5.03l3.91 6.442h-2.965L33.84 6.629l-.965 1.18v3.664h-2.516zM49.594 9.344l-2.102-7.196-2.57 9.325H42.48L45.91.253h3.328l3.48 11.22h-2.73l-4.324-.02.602-2.11zM103.648 9.344l-2.101-7.196-2.57 9.325h-2.442l3.43-11.22h3.332l3.476 11.22h-2.73l-4.324-.02.601-2.11zM122.914 9.344l-2.102-7.196-2.57 9.325h-2.441l3.43-11.22h3.328l3.48 11.22h-2.73l-4.325-.02.598-2.11zM56.715.254h2.547v9.09h4.46v2.129h-7.007zM70.266.254v11.219h-2.547V.253zM77.125 2.383h-3.012V.253h8.625v2.13h-3.066v9.09h-2.547zM89.113 2.383h-3.015V.253h8.625v2.13H91.66v9.09h-2.547zM132.613.254v11.219h-2.547V.253zM139.824 5.23h1c1.266 0 2.016-.632 2.016-1.617 0-1.031-.7-1.547-1.867-1.562-.618 0-.965.05-1.149.082ZM137.312.402c.813-.132 2.032-.234 3.375-.234 1.668 0 2.833.25 3.633.883.664.531 1.032 1.316 1.032 2.347 0 1.434-1.016 2.415-1.98 2.762v.05c.78.317 1.214 1.067 1.495 2.099.352 1.265.7 2.73.918 3.164h-2.597c-.184-.317-.45-1.23-.786-2.614-.297-1.398-.78-1.78-1.812-1.796h-.766v4.41h-2.512z" style="stroke:none;fill-rule:nonzero;fill:#292827;fill-opacity:1"/></svg>
